Sweet-Rainbow/icons/retroarch.svg

<?xml version="1.0" encoding="UTF-8" standalone="no"?>
<!-- Generator: Gravit.io -->

<svg
   xmlns:dc="http://purl.org/dc/elements/1.1/"
   xmlns:cc="http://creativecommons.org/ns#"
   xmlns:rdf="http://www.w3.org/1999/02/22-rdf-syntax-ns#"
   xmlns:svg="http://www.w3.org/2000/svg"
   xmlns="http://www.w3.org/2000/svg"
   xmlns:sodipodi="http://sodipodi.sourceforge.net/DTD/sodipodi-0.dtd"
   xmlns:inkscape="http://www.inkscape.org/namespaces/inkscape"
   style="isolation:isolate"
   viewBox="0 0 36 36"
   width="48"
   height="48"
   version="1.1"
   id="svg9"
   sodipodi:docname="retroarch.svg"
   inkscape:version="0.92.4 (5da689c313, 2019-01-14)">
  <metadata
     id="metadata15">
    <rdf:RDF>
      <cc:Work
         rdf:about="">
        <dc:format>image/svg+xml</dc:format>
        <dc:type
           rdf:resource="http://purl.org/dc/dcmitype/StillImage" />
        <dc:title></dc:title>
      </cc:Work>
    </rdf:RDF>
  </metadata>
  <defs
     id="defs13" />
  <sodipodi:namedview
     pagecolor="#ffffff"
     bordercolor="#666666"
     borderopacity="1"
     objecttolerance="10"
     gridtolerance="10"
     guidetolerance="10"
     inkscape:pageopacity="0"
     inkscape:pageshadow="2"
     inkscape:window-width="640"
     inkscape:window-height="480"
     id="namedview11"
     showgrid="false"
     inkscape:zoom="29.365243"
     inkscape:cx="25.325443"
     inkscape:cy="32"
     inkscape:current-layer="svg9"
     units="px" />
  <linearGradient
     id="_lgradient_10"
     x1="0"
     y1="0.5"
     x2="1.2386364"
     y2="0.54545456"
     gradientTransform="matrix(44,0,0,44,2,2)"
     gradientUnits="userSpaceOnUse">
    <stop
       offset="0%"
       stop-opacity="1"
       style="stop-color:rgb(88,0,226)"
       id="stop2" />
    <stop
       offset="100%"
       stop-opacity="1"
       style="stop-color:rgb(255,0,230)"
       id="stop4" />
  </linearGradient>
  <g
     id="g826"
     transform="matrix(0.81818182,0,0,0.81818182,-1.6363637,-1.6363637)">
    <path
       id="path7"
       d="m 6,14.36 v 0 c 0,1.104 -0.896,2 -2,2 v 0 c -1.104,0 -2,-0.896 -2,-2 v 0 V 7 C 2,4.24 4.24,2 7,2 h 11.36 v 0 c 1.104,0 2,0.896 2,2 v 0 c 0,1.104 -0.896,2 -2,2 V 6 H 9 C 7.344,6 6,7.344 6,9 Z M 29.64,6 v 0 c -1.104,0 -2,-0.896 -2,-2 v 0 c 0,-1.104 0.896,-2 2,-2 V 2 H 41 c 2.76,0 5,2.24 5,5 v 7.36 0 c 0,1.104 -0.896,2 -2,2 v 0 c -1.104,0 -2,-0.896 -2,-2 v 0 V 9 C 42,7.344 40.656,6 39,6 Z M 42,33.64 v 0 c 0,-1.104 0.896,-2 2,-2 v 0 c 1.104,0 2,0.896 2,2 v 0 7.36 c 0,2.76 -2.24,5 -5,5 H 30 v 0 c -1.104,0 -2,-0.896 -2,-2 v 0 c 0,-1.104 0.896,-2 2,-2 v 0 h 9 c 1.656,0 3,-1.344 3,-3 z M 18.36,42 v 0 c 1.104,0 2,0.896 2,2 v 0 c 0,1.104 -0.896,2 -2,2 v 0 H 7 C 4.24,46 2,43.76 2,41 v -7.36 0 c 0,-1.104 0.896,-2 2,-2 v 0 c 1.104,0 2,0.896 2,2 v 0 5.36 c 0,1.656 1.344,3 3,3 z m -2.242,-27.91 3.485,4.647 h -6.971 l -0.723,3.485 H 7.985 L 9.147,17.575 H 6.824 L 4.5,26.869 h 2.324 4.209 l -0.724,3.486 h 4.647 l -3.485,4.647 h 4.647 l 3.485,-4.647 h 9.294 l 3.485,4.647 h 4.647 l -3.485,-4.647 h 4.647 L 37.467,26.869 H 44 l -2.324,-9.294 h -2.323 l 1.162,4.647 h -3.924 l -0.723,-3.485 h -6.971 l 3.485,-4.647 h -2.323 l -3.485,4.647 H 21.926 L 18.441,14.09 Z M 17,21 v 4 h 4 v -4 z m 12,0 v 4 h 4 v -4 z"
       inkscape:connector-curvature="0"
       style="fill:url(#_lgradient_10);fill-rule:evenodd" />
  </g>
</svg>

<?xml version="1.0" encoding="UTF-8" standalone="no"?><!-- Generator: Gravit.io --><svg xmlns="http://www.w3.org/2000/svg" xmlns:xlink="http://www.w3.org/1999/xlink" style="isolation:isolate" viewBox="0 0 48 48" width="48pt" height="48pt"><linearGradient id="_lgradient_10" x1="0" y1="0.5" x2="1.2386363636363638" y2="0.5454545454545455" gradientTransform="matrix(44,0,0,44,2,2)" gradientUnits="userSpaceOnUse"><stop offset="0%" stop-opacity="1" style="stop-color:rgb(88,0,226)"/><stop offset="100%" stop-opacity="1" style="stop-color:rgb(255,0,230)"/></linearGradient><path d=" M 6 14.36 L 6 14.36 C 6 15.464 5.104 16.36 4 16.36 L 4 16.36 C 2.896 16.36 2 15.464 2 14.36 L 2 14.36 L 2 7 C 2 4.24 4.24 2 7 2 L 18.36 2 L 18.36 2 C 19.464 2 20.36 2.896 20.36 4 L 20.36 4 C 20.36 5.104 19.464 6 18.36 6 L 18.36 6 L 9 6 C 7.344 6 6 7.344 6 9 L 6 14.36 L 6 14.36 L 6 14.36 L 6 14.36 L 6 14.36 Z  M 29.64 6 L 29.64 6 C 28.536 6 27.64 5.104 27.64 4 L 27.64 4 C 27.64 2.896 28.536 2 29.64 2 L 29.64 2 L 41 2 C 43.76 2 46 4.24 46 7 L 46 14.36 L 46 14.36 C 46 15.464 45.104 16.36 44 16.36 L 44 16.36 C 42.896 16.36 42 15.464 42 14.36 L 42 14.36 L 42 9 C 42 7.344 40.656 6 39 6 L 29.64 6 L 29.64 6 L 29.64 6 L 29.64 6 L 29.64 6 Z  M 42 33.64 L 42 33.64 C 42 32.536 42.896 31.64 44 31.64 L 44 31.64 C 45.104 31.64 46 32.536 46 33.64 L 46 33.64 L 46 41 C 46 43.76 43.76 46 41 46 L 30 46 L 30 46 C 28.896 46 28 45.104 28 44 L 28 44 C 28 42.896 28.896 42 30 42 L 30 42 L 39 42 C 40.656 42 42 40.656 42 39 L 42 33.64 L 42 33.64 L 42 33.64 L 42 33.64 Z  M 18.36 42 L 18.36 42 C 19.464 42 20.36 42.896 20.36 44 L 20.36 44 C 20.36 45.104 19.464 46 18.36 46 L 18.36 46 L 7 46 C 4.24 46 2 43.76 2 41 L 2 33.64 L 2 33.64 C 2 32.536 2.896 31.64 4 31.64 L 4 31.64 C 5.104 31.64 6 32.536 6 33.64 L 6 33.64 L 6 39 C 6 40.656 7.344 42 9 42 L 18.36 42 L 18.36 42 L 18.36 42 Z  M 16.118 14.09 L 19.603 18.737 L 12.632 18.737 L 11.909 22.222 L 7.985 22.222 L 9.147 17.575 L 6.824 17.575 L 4.5 26.869 L 6.824 26.869 L 11.033 26.869 L 10.309 30.355 L 14.956 30.355 L 11.471 35.002 L 16.118 35.002 L 19.603 30.355 L 28.897 30.355 L 32.382 35.002 L 37.029 35.002 L 33.544 30.355 L 38.191 30.355 L 37.467 26.869 L 44 26.869 L 41.676 17.575 L 39.353 17.575 L 40.515 22.222 L 36.591 22.222 L 35.868 18.737 L 28.897 18.737 L 32.382 14.09 L 30.059 14.09 L 26.574 18.737 L 21.926 18.737 L 18.441 14.09 L 16.118 14.09 L 16.118 14.09 Z  M 17 21 L 17 25 L 21 25 L 21 21 L 17 21 L 17 21 Z  M 29 21 L 29 25 L 33 25 L 33 21 L 29 21 L 29 21 Z " fill-rule="evenodd" fill="url(#_lgradient_10)"/></svg>
